icon-themes/breeze_svg/res/odf_48_8.svg

<svg viewBox="0 0 48 48" xmlns="http://www.w3.org/2000/svg"><path d="m30.375 6-.328125 1.0917969-7.921875 26.6914061-4.265625-8.691406-.421875-.853516h-.9375-10.5v3.039063h9.5625l5.578125 11.302734 1.6875 3.419922 1.125-3.65625 8.671875-29.3046875h9.375v-3.0390625h-10.5z" fill="#8e44ad"/></svg>

<svg xmlns="http://www.w3.org/2000/svg" viewBox="0 0 48 48">
 <path 
     style="fill:#8e44ad" 
     d="M 30.375 6 L 30.046875 7.0917969 L 22.125 33.783203 L 17.859375 25.091797 L 17.4375 24.238281 L 16.5 24.238281 L 6 24.238281 L 6 27.277344 L 15.5625 27.277344 L 21.140625 38.580078 L 22.828125 42 L 23.953125 38.34375 L 32.625 9.0390625 L 42 9.0390625 L 42 6 L 31.5 6 L 30.375 6 z"
     />
 </svg>
